X:755
T:The Trip to the Jubilee
C:John Essex, 1710
S:Colin Hume's website,  colinhume.com  - chords can also be printed below the stave.
Q:1/2=90
M:9/8
L:1/8
K:D
P:A
|: "D"FA2- "/"A2B "D7"AFD | "G"GB2 "Em"Bcd "A"E2E | "D"FA2- "/"A2B "D7"AFD | "G"GB2 "C"=c2B "D"AFD :|
P:B
"D"Ad2 "/"d3/e/ "/"f/e/ d2D | "D"FA2 "/"B/c/dF "Em"E2d | "A7"ce2 "/"e3/f/g/f/ "/"e2E | "G"G3/A/B/c/ "/"d2e "D"fed |
"G"BG2 "/"B/c/de "/"dBG | "D"AF2 "/"A3/B/A "A"E3/F/G/A/ | "G"B3 "A"A3 "Bm"d3 | "Em"F2G "A7"A2B "D"AFD |]

